X:1
T:Title
%%score ( 1 2 ) { 3 | 4 }
L:1/8
M:4/4
K:Eb
V:1 treble nm="Grand Piano, Soprano"
V:2 treble 
V:3 bass nm="Choir Pad, Chicopee, 12.11.12.11"
V:4 bass 
V:1
 [Ge]2 [Ge]4 [GB]2 | z2 c4 z2 | z2 c2 z4 | [EG]2 [DF]4 E2 | [EG]2 [DF]2 E2 [Cc]2 | %5
w: By~Henry~John~Gauntlett~(1805\-1876) * *|||||
 [DB]2 [EB]4 [EA]2 | z2 G2 z4 | z2 E4 z2 | [EG]2 [EG]4 [EF]2 | [DB]2 [EB]4 [E=A]2 | %10
w: |||||
 [F=A]2 f2 e2 [Fd]2 | [Fc]2 [Fc]4 [FB]2 | [FB]2 B2 e2 [Ad]2 | [FA]2 G2 [Ac]2 B2 | E2 [EG]4 [DG]2 | %15
w: |||||
 [DF]2 E6- | E2 z2 z4 |] %17
w: ||
V:2
 x8 | [GB]2 G2 F2 B2 | [AB]2 G2- [GB]2 [GB]2 | x8 | x8 | x8 | [EG]2 C2- [CF]2 [CA]2 | %7
 [CF]2 B,4- [B,D]2 | x8 | x8 | z2 F4 z2 | x8 | x8 | x8 | x8 | x8 | x8 |] %17
V:3
 B,2 B,4 B,2 | B,2 B,2 A,2 G,2 | D2 E4 E2 | B,2 A,4[K:bass] G,2 | B,2 A,2 G,2 A,2 | A,2 G,4 C2 | %6
 B,2 A,4 A,2 | A,2 G,4 F,2 | E,2 C4 C2 | F,2 F,4 F,2 | C2 =A,4 A,2 | =A,2 A,4 B,2 | %12
 A,2 G,2 B,2[K:treble] C2 | D2 E2 DC[K:bass] B,2 | C2 B,4 B,2 | A,2 G,6- | G,2 z2 z4 |] %17
V:4
 E,2 E,4 E,2 | E,2 E,4 E,2 | E,2 E,4 E,2 | E,2 B,,4 E,2 | E,2 E,4 E,2 | E,2 E,4 E,2 | %6
 E,2 A,,4 A,,2 | A,,2 B,,6 | B,,2 A,,4 A,,2 | B,,2 C,4 C,2 | C,2 C,4 F,2 | E,2 D,4 D,2 | %12
 D,2 E,4 E,2 | E,2 E,2 F,2 G,2 | A,2 z2 z2 B,,2 | B,,2 E,6- | E,2 z2 z4 |] %17

